img/svg/partners/logo/logoipsum7.svg

<svg width="102" height="102" viewBox="0 0 102 102" fill="none" xmlns="http://www.w3.org/2000/svg">
<circle cx="51" cy="51" r="51" fill="#252532" fill-opacity="0.8"/>
<circle cx="51" cy="51" r="50.5" stroke="url(#paint0_linear_43_1765)" stroke-opacity="0.3"/>
<path d="M36.4084 47.847H38.1503V54.8903H36.4084V47.847ZM38.8413 52.2309C38.8413 50.489 39.9097 49.4496 41.5587 49.4496C43.2077 49.4496 44.2761 50.489 44.2761 52.2309C44.2761 53.9729 43.231 55.018 41.5587 55.018C39.8865 55.018 38.8413 54.0019 38.8413 52.2309ZM42.5284 52.2309C42.5284 51.2729 42.151 50.7096 41.5587 50.7096C40.9665 50.7096 40.5948 51.2903 40.5948 52.2309C40.5948 53.1716 40.9606 53.7406 41.5587 53.7406C42.1568 53.7406 42.5284 53.2064 42.5284 52.2367V52.2309ZM44.9323 55.2329H46.6045C46.6841 55.4097 46.8187 55.556 46.9881 55.6502C47.1576 55.7443 47.353 55.7813 47.5452 55.7554C48.2071 55.7554 48.5555 55.3954 48.5555 54.8729V53.8974H48.5206C48.3819 54.1963 48.1566 54.4468 47.8741 54.6166C47.5916 54.7863 47.2646 54.8675 46.9355 54.8496C45.6639 54.8496 44.8219 53.8799 44.8219 52.2135C44.8219 50.547 45.6232 49.4961 46.9587 49.4961C47.2982 49.4828 47.6335 49.5735 47.92 49.7561C48.2064 49.9388 48.4302 50.2046 48.5613 50.518V49.5483H50.3032V54.8322C50.3032 56.1038 49.1826 56.8935 47.5277 56.8935C45.989 56.8935 45.031 56.2025 44.9323 55.2387V55.2329ZM48.5613 52.2251C48.5613 51.3774 48.1723 50.8432 47.5568 50.8432C46.9413 50.8432 46.5639 51.3716 46.5639 52.2251C46.5639 53.0787 46.9355 53.5606 47.5568 53.5606C48.1781 53.5606 48.5613 53.0903 48.5613 52.2309V52.2251ZM50.9594 52.2251C50.9594 50.4832 52.0277 49.4438 53.6768 49.4438C55.3258 49.4438 56.4 50.4832 56.4 52.2251C56.4 53.967 55.3548 55.0122 53.6768 55.0122C51.9987 55.0122 50.9594 54.0019 50.9594 52.2309V52.2251ZM54.6465 52.2251C54.6465 51.267 54.269 50.7038 53.6768 50.7038C53.0845 50.7038 52.7419 51.2903 52.7419 52.2367C52.7419 53.1832 53.1077 53.7464 53.7 53.7464C54.2923 53.7464 54.6465 53.2064 54.6465 52.2367V52.2251ZM57.0619 48.2825C57.0573 48.1067 57.1051 47.9334 57.1991 47.7847C57.2932 47.636 57.4293 47.5186 57.5901 47.4473C57.7509 47.376 57.9293 47.3541 58.1026 47.3843C58.2759 47.4145 58.4364 47.4955 58.5636 47.617C58.6909 47.7386 58.7791 47.8951 58.8173 48.0669C58.8554 48.2386 58.8417 48.4178 58.7779 48.5818C58.714 48.7457 58.603 48.887 58.4587 48.9878C58.3146 49.0885 58.1436 49.1442 57.9677 49.1477C57.8511 49.1557 57.7341 49.1395 57.6241 49.1001C57.514 49.0608 57.4133 48.9991 57.3283 48.9189C57.2432 48.8388 57.1756 48.7419 57.1298 48.6343C57.0839 48.5269 57.0608 48.411 57.0619 48.2941V48.2825ZM57.0619 49.5599H58.8039V54.8903H57.0619V49.5599ZM65.1271 52.2251C65.1271 53.967 64.3548 54.9599 63.031 54.9599C62.6915 54.9817 62.3535 54.8987 62.0627 54.7222C61.772 54.5457 61.5424 54.2841 61.4052 53.9729H61.3703V56.5974H59.6284V49.5483H61.3703V50.5006H61.4052C61.536 50.1842 61.7612 49.9158 62.05 49.7319C62.3388 49.548 62.6773 49.4576 63.0194 49.4729C64.3548 49.4961 65.1503 50.4948 65.1503 52.2367L65.1271 52.2251ZM63.3852 52.2251C63.3852 51.3774 62.9961 50.8374 62.3865 50.8374C61.7768 50.8374 61.3877 51.3832 61.3819 52.2251C61.3761 53.067 61.7768 53.607 62.3865 53.607C62.9961 53.607 63.3852 53.0787 63.3852 52.2367V52.2251ZM68.1174 49.438C69.5632 49.438 70.44 50.1232 70.4806 51.2206H68.8955C68.8955 50.8432 68.5819 50.6051 68.1 50.6051C67.6181 50.6051 67.4032 50.7909 67.4032 51.0638C67.4032 51.3367 67.5948 51.4238 67.9839 51.5051L69.0987 51.7316C70.1613 51.958 70.6142 52.3877 70.6142 53.1948C70.6142 54.298 69.6097 55.0064 68.129 55.0064C66.6484 55.0064 65.6787 54.298 65.6032 53.2122H67.2813C67.3335 53.607 67.6471 53.8393 68.1581 53.8393C68.669 53.8393 68.9013 53.6709 68.9013 53.3922C68.9013 53.1135 68.7387 53.0554 68.3206 52.9683L67.3161 52.7535C66.2768 52.5387 65.731 51.987 65.731 51.1741C65.7426 50.129 66.6774 49.4496 68.1174 49.4496V49.438ZM76.4264 54.8787H74.7484V53.8858H74.7135C74.6212 54.2191 74.418 54.5109 74.137 54.7127C73.8559 54.9144 73.5145 55.0139 73.169 54.9948C72.9044 55.0098 72.6396 54.9679 72.3925 54.8718C72.1455 54.7757 71.9219 54.6278 71.737 54.4378C71.5521 54.248 71.41 54.0205 71.3205 53.771C71.231 53.5215 71.1961 53.2557 71.2181 52.9916V49.5483H72.96V52.5909C72.96 53.2238 73.2852 53.5606 73.8252 53.5606C73.9517 53.5608 74.0772 53.5341 74.1927 53.482C74.3077 53.4299 74.411 53.3537 74.4946 53.2586C74.5777 53.1634 74.6404 53.0515 74.677 52.9304C74.7135 52.8092 74.7246 52.6816 74.7077 52.5561V49.5483H76.4497L76.4264 54.8787ZM77.2684 49.5483H78.9523V50.5761H78.9871C79.0794 50.2471 79.2786 49.9581 79.5526 49.7543C79.8267 49.5505 80.1612 49.4433 80.5026 49.4496C80.8504 49.4218 81.1953 49.5258 81.4699 49.741C81.744 49.9562 81.9275 50.2667 81.9832 50.6109H82.0181C82.1232 50.2631 82.3415 49.9602 82.6382 49.7499C82.9343 49.5397 83.2926 49.434 83.6555 49.4496C83.8924 49.4417 84.1281 49.4837 84.3476 49.5728C84.5677 49.662 84.7657 49.7964 84.93 49.9672C85.0943 50.1381 85.2209 50.3416 85.3016 50.5645C85.3817 50.7874 85.4148 51.0249 85.3974 51.2612V54.8903H83.6555V51.7258C83.6555 51.1451 83.3942 50.878 82.9065 50.878C82.7979 50.8771 82.6899 50.8995 82.5906 50.9437C82.4913 50.988 82.4024 51.053 82.3304 51.1345C82.2584 51.2159 82.2044 51.3119 82.1725 51.4159C82.1406 51.5199 82.1319 51.6295 82.1458 51.7374V54.8903H80.491V51.7025C80.491 51.1683 80.2297 50.878 79.7535 50.878C79.6438 50.8781 79.5346 50.9014 79.4348 50.9465C79.3343 50.9917 79.2443 51.0576 79.1717 51.1399C79.0986 51.2222 79.044 51.319 79.0109 51.4241C78.9784 51.529 78.9679 51.6398 78.9813 51.749V54.8903H77.2394L77.2684 49.5483Z" fill="#D1D1D1"/>
<path d="M31.5368 48.1663C31.2413 47.4907 30.8502 46.861 30.3755 46.2966C29.6738 45.4375 28.798 44.7367 27.8059 44.2404C26.8138 43.744 25.7279 43.4634 24.6195 43.417C23.5112 43.3706 22.4056 43.5595 21.3755 43.9712C20.3454 44.3828 19.4141 45.008 18.6431 45.8055C17.872 46.603 17.2785 47.5548 16.9018 48.5982C16.525 49.6415 16.3735 50.7529 16.4572 51.859C16.5409 52.9652 16.8579 54.0411 17.3874 55.0158C17.9168 55.9907 18.6467 56.8423 19.529 57.5147C20.0952 57.9548 20.7207 58.3125 21.3871 58.5773C22.3213 58.9602 23.3213 59.1574 24.331 59.1579C26.4151 59.1534 28.4124 58.3226 29.8851 56.8477C31.3577 55.3729 32.1856 53.3744 32.1871 51.2902C32.1886 50.2151 31.9672 49.1514 31.5368 48.1663ZM24.3251 45.0134C25.2319 45.0133 26.1276 45.2115 26.9497 45.5941C26.7492 45.6807 26.5384 45.7412 26.3226 45.7741C25.6122 45.8769 24.9542 46.2067 24.4466 46.7142C23.9391 47.2218 23.6093 47.8798 23.5064 48.5902C23.4613 48.9886 23.2801 49.3592 22.9934 49.6395C22.7068 49.9199 22.3322 50.0927 21.9329 50.1289C21.2225 50.2317 20.5645 50.5615 20.0569 51.0691C19.5494 51.5766 19.2196 52.2347 19.1168 52.945C19.0819 53.3238 18.9203 53.6798 18.6581 53.9554C18.2055 52.9992 18.0022 51.9441 18.0671 50.8882C18.132 49.8324 18.4629 48.8101 19.0291 47.9165C19.5952 47.0229 20.3783 46.2871 21.3053 45.7775C22.2323 45.2678 23.2731 45.001 24.331 45.0018L24.3251 45.0134ZM19.5232 55.3547C19.5929 55.2908 19.6626 55.2328 19.7322 55.1631C20.2488 54.6623 20.5804 54.0012 20.6729 53.2876C20.7104 52.8865 20.8895 52.5119 21.178 52.2308C21.4558 51.9418 21.8295 51.7642 22.229 51.7315C22.9394 51.6287 23.5974 51.2988 24.105 50.7913C24.6125 50.2838 24.9423 49.6257 25.0451 48.9154C25.0703 48.4958 25.2503 48.1006 25.5503 47.8063C25.8349 47.5229 26.2122 47.3517 26.6129 47.3244C27.2655 47.2346 27.8741 46.9445 28.3548 46.4941C28.9022 46.9482 29.3659 47.4945 29.7251 48.1083C29.7031 48.138 29.6778 48.1653 29.6497 48.1896C29.3725 48.4812 28.9992 48.6627 28.5987 48.7005C27.8876 48.8016 27.2285 49.1308 26.7207 49.6386C26.2128 50.1465 25.8836 50.8055 25.7826 51.5166C25.7416 51.9164 25.5638 52.2897 25.2791 52.5732C24.9945 52.8569 24.6205 53.0334 24.2206 53.0728C23.5082 53.1748 22.8477 53.504 22.3372 54.0113C21.8267 54.5186 21.4935 55.1771 21.3871 55.8889C21.3558 56.1727 21.2584 56.4452 21.1026 56.6844C20.5068 56.3307 19.9733 55.8815 19.5232 55.3547ZM24.3251 57.596C23.736 57.5966 23.1496 57.5145 22.5832 57.3521C22.777 56.991 22.9029 56.5974 22.9548 56.1908C22.9955 55.792 23.1726 55.4194 23.456 55.1359C23.7395 54.8525 24.1121 54.6754 24.511 54.6347C25.2224 54.533 25.8817 54.2038 26.3904 53.6961C26.8991 53.1885 27.2298 52.5298 27.3329 51.8186C27.3736 51.4197 27.5506 51.0471 27.8341 50.7637C28.1176 50.4802 28.4902 50.3032 28.889 50.2625C29.4244 50.1928 29.9346 49.9935 30.3755 49.6818C30.6203 50.6096 30.6492 51.5812 30.4602 52.5219C30.2712 53.4627 29.8692 54.3477 29.2851 55.109C28.7009 55.8702 27.9502 56.4876 27.0904 56.9137C26.2306 57.3398 25.2847 57.5633 24.3251 57.567V57.596Z" fill="#D1D1D1"/>
<defs>
<linearGradient id="paint0_linear_43_1765" x1="-1.07003e-06" y1="-3.68497" x2="110.285" y2="5.81496" gradientUnits="userSpaceOnUse">
<stop offset="0" stop-color="white"/>
<stop offset="1" stop-color="white" stop-opacity="0"/>
</linearGradient>
</defs>
</svg>

<svg width="102" height="102" fill="none" xmlns="http://www.w3.org/2000/svg"><circle cx="51" cy="51" r="51" fill="#252532" fill-opacity=".8"/><circle cx="51" cy="51" r="50.5" stroke="url(#a)" stroke-opacity=".3"/><path d="M36.408 47.847h1.742v7.043h-1.742v-7.043Zm2.433 4.384c0-1.742 1.069-2.781 2.718-2.781s2.717 1.039 2.717 2.78c0 1.743-1.045 2.788-2.717 2.788-1.672 0-2.718-1.016-2.718-2.787Zm3.687 0c0-.958-.377-1.521-.97-1.521-.591 0-.963.58-.963 1.52 0 .942.366 1.51.964 1.51s.97-.534.97-1.503v-.006Zm2.404 3.002h1.672a.9.9 0 0 0 .941.522c.662 0 1.01-.36 1.01-.882v-.976h-.034a1.65 1.65 0 0 1-1.586.953c-1.271 0-2.113-.97-2.113-2.636 0-1.667.801-2.718 2.137-2.718a1.667 1.667 0 0 1 1.602 1.022v-.97h1.742v5.284c0 1.272-1.12 2.062-2.775 2.062-1.539 0-2.497-.691-2.596-1.655v-.006Zm3.63-3.008c0-.848-.39-1.382-1.005-1.382-.616 0-.993.529-.993 1.382 0 .854.371 1.336.993 1.336.621 0 1.004-.47 1.004-1.33v-.006Zm2.397 0c0-1.742 1.069-2.781 2.718-2.781s2.723 1.04 2.723 2.781c0 1.742-1.045 2.787-2.723 2.787s-2.718-1.01-2.718-2.781v-.006Zm3.688 0c0-.958-.378-1.521-.97-1.521-.593 0-.935.586-.935 1.533 0 .946.366 1.51.958 1.51s.947-.54.947-1.51v-.012Zm2.415-3.943a.888.888 0 1 1 .906.866.847.847 0 0 1-.906-.854v-.011Zm0 1.278h1.742v5.33h-1.742v-5.33Zm8.065 2.665c0 1.742-.772 2.735-2.096 2.735a1.661 1.661 0 0 1-1.626-.987h-.035v2.624h-1.742v-7.049h1.742v.953h.035a1.666 1.666 0 0 1 1.614-1.028c1.336.023 2.131 1.022 2.131 2.764l-.023-.012Zm-1.742 0c0-.848-.389-1.388-.998-1.388-.61 0-1 .546-1.005 1.388-.006.842.395 1.382 1.005 1.382.61 0 .998-.528.998-1.37v-.012Zm4.732-2.787c1.446 0 2.323.685 2.364 1.783h-1.585c0-.378-.314-.616-.796-.616-.482 0-.697.186-.697.459s.192.36.58.441l1.116.227c1.062.226 1.515.656 1.515 1.463 0 1.103-1.004 1.811-2.485 1.811-1.48 0-2.45-.708-2.526-1.794h1.678c.052.395.366.627.877.627s.743-.168.743-.447-.162-.337-.58-.424l-1.005-.215c-1.04-.214-1.585-.766-1.585-1.579.012-1.045.946-1.724 2.386-1.724v-.012Zm8.31 5.44h-1.679v-.992h-.035a1.516 1.516 0 0 1-1.544 1.109 1.853 1.853 0 0 1-1.95-2.003v-3.444h1.741v3.043c0 .633.325.97.865.97a.89.89 0 0 0 .852-.63.888.888 0 0 0 .03-.375v-3.008h1.743l-.024 5.33Zm.841-5.33h1.684v1.028h.035a1.545 1.545 0 0 1 1.516-1.126 1.388 1.388 0 0 1 1.48 1.16h.035a1.636 1.636 0 0 1 1.638-1.16 1.69 1.69 0 0 1 1.741 1.811v3.63h-1.742v-3.165c0-.58-.26-.848-.749-.848a.762.762 0 0 0-.76.86v3.152H80.49v-3.188c0-.534-.261-.824-.737-.824a.777.777 0 0 0-.773.871v3.141H77.24l.03-5.342ZM31.537 48.166a7.696 7.696 0 0 0-1.162-1.87A7.856 7.856 0 1 0 19.53 57.516c.566.44 1.192.797 1.858 1.062.934.383 1.934.58 2.944.58a7.873 7.873 0 0 0 7.856-7.867 7.775 7.775 0 0 0-.65-3.124Zm-7.212-3.153c.907 0 1.803.199 2.625.581-.2.087-.412.147-.627.18a3.327 3.327 0 0 0-2.817 2.816 1.741 1.741 0 0 1-1.573 1.539 3.327 3.327 0 0 0-2.816 2.816 1.691 1.691 0 0 1-.459 1.01 6.27 6.27 0 0 1 5.673-8.953l-.006.011Zm-4.802 10.342c.07-.064.14-.122.21-.192.516-.5.847-1.162.94-1.875.037-.401.217-.776.505-1.057a1.644 1.644 0 0 1 1.051-.5 3.327 3.327 0 0 0 2.816-2.816c.025-.42.205-.814.505-1.109a1.667 1.667 0 0 1 1.063-.482 3.182 3.182 0 0 0 1.742-.83c.547.454 1.01 1 1.37 1.614a.505.505 0 0 1-.075.082c-.277.291-.65.473-1.051.51a3.316 3.316 0 0 0-2.816 2.817 1.742 1.742 0 0 1-1.562 1.556 3.345 3.345 0 0 0-2.834 2.816 1.824 1.824 0 0 1-.284.795 6.322 6.322 0 0 1-1.58-1.33Zm4.802 2.241c-.589 0-1.175-.081-1.742-.244.194-.361.32-.755.372-1.161a1.743 1.743 0 0 1 1.556-1.556 3.327 3.327 0 0 0 2.822-2.816 1.741 1.741 0 0 1 1.556-1.556 3.317 3.317 0 0 0 1.486-.581 6.282 6.282 0 0 1-6.05 7.885v.029Z" fill="#D1D1D1"/><defs><linearGradient id="a" x1="0" y1="-3.685" x2="110.285" y2="5.815" gradientUnits="userSpaceOnUse"><stop offset="0" stop-color="#fff"/><stop offset="1" stop-color="#fff" stop-opacity="0"/></linearGradient></defs></svg>
